assets/img/icon-validator.svg

<?xml version="1.0" encoding="UTF-8"?>
<svg width="40px" height="40px" viewBox="0 0 40 40" version="1.1" xmlns="http://www.w3.org/2000/svg" xmlns:xlink="http://www.w3.org/1999/xlink">
    <!-- Generator: Sketch 49.3 (51167) - http://www.bohemiancoding.com/sketch -->
    <title>icon-validator</title>
    <desc>Created with Sketch.</desc>
    <defs></defs>
    <g id="icon-validator" stroke="none" stroke-width="1" fill="none" fill-rule="evenodd">
        <rect id="Rectangle-3" x="0" y="0" width="40" height="40"></rect>
        <path d="M19.9335012,6 C19.7066207,6.01564783 19.49539,6.1095288 19.3232739,6.25817417 L16.9058393,8.44873011 L13.7138862,7.76026967 C13.2131877,7.65856379 12.7046662,7.94803161 12.5481979,8.43308228 L11.5468009,11.5468021 L8.43308091,12.5481991 C7.94803021,12.7046674 7.65856237,13.2053659 7.76026826,13.7060644 L8.44872874,16.9058402 L6.25817268,19.3232747 C5.91394244,19.7066215 5.91394244,20.293378 6.25817268,20.6689019 L8.44872874,23.0941613 L7.76026826,26.2939371 C7.65856237,26.7946356 7.94803021,27.2953341 8.43308091,27.4518024 L11.5468009,28.4531994 L12.5481979,31.5590943 C12.7046662,32.0519699 13.2053648,32.3414357 13.7060633,32.2397318 L16.9058393,31.5512714 L19.3232739,33.7418273 C19.7066207,34.0860576 20.2933773,34.0860576 20.6689012,33.7418273 L23.0941607,31.5512714 L26.2939367,32.2397318 C26.7946352,32.3414357 27.2953338,32.0519699 27.4518021,31.5590943 L28.4531991,28.4531994 L31.5590942,27.4518024 C32.0519698,27.2953341 32.3414356,26.7946356 32.2397317,26.2939371 L31.5512713,23.0941613 L33.7418273,20.6689019 C34.0860576,20.293378 34.0860576,19.7066215 33.7418273,19.3232747 L31.5512713,16.9058402 L32.2397317,13.7060644 C32.3414356,13.2053659 32.0519698,12.7046674 31.5590942,12.5481991 L28.4531991,11.5468021 L27.4518021,8.43308228 C27.2953338,7.94803161 26.7946352,7.65856379 26.2939367,7.76026967 L23.0941607,8.44873011 L20.6689012,6.25817417 C20.4967871,6.10170589 20.2699065,6.00782492 20.0352051,6 C20.0039115,6 19.9647949,6 19.9335012,6 Z M19.9960885,8.35484914 L22.1318802,10.279408 C22.3744066,10.4984636 22.702989,10.5845217 23.0159255,10.5141114 L25.8245318,9.91170704 L26.7085772,12.649903 C26.8024582,12.9550166 27.0449845,13.197541 27.3500982,13.2992468 L30.0882922,14.1754692 L29.4858898,16.9918983 C29.4154796,17.3048349 29.5093606,17.6255943 29.7205913,17.8681207 L31.6529751,19.9960893 L29.7205913,22.1318808 C29.5015357,22.3744072 29.4154796,22.7029896 29.4858898,23.0159261 L30.0882922,25.8245323 L27.3500982,26.7085776 C27.0449845,26.8024585 26.8024582,27.0449849 26.7085772,27.3500985 L25.8245318,30.0882925 L23.0159255,29.4858901 C22.702989,29.4154798 22.3744066,29.5015359 22.1318802,29.7205915 L19.9960885,31.6529753 L17.8681198,29.7205915 C17.6255934,29.5093608 17.304834,29.4154798 16.9918974,29.4858901 L14.1754682,30.0882925 L13.2992457,27.3500985 C13.1975398,27.0449849 12.9550155,26.8024585 12.6499018,26.7085776 L9.91953067,25.8245323 L10.5141102,23.0159261 C10.5845204,22.7029896 10.4984623,22.3744072 10.2794067,22.1318808 L8.35484776,19.9960893 L10.2794067,17.8681207 C10.4984623,17.6334172 10.5845204,17.3048349 10.5141102,16.9918983 L9.91953067,14.1754692 L12.6499018,13.2992468 C12.9550155,13.197541 13.1975398,12.9550166 13.2992457,12.649903 L14.1754682,9.91170704 L16.9840725,10.5141114 C17.297009,10.5845217 17.6255934,10.4984636 17.8681198,10.279408 L19.9960885,8.35484914 Z M25.2925397,15.2550994 L18.9712207,21.3495394 L15.4115666,18.0011182 L14.0346457,19.4562722 L18.9868666,24.119027 L26.6851064,16.6946076 L25.2925397,15.2550994 Z" id="Shape" fill="#D15C22" fill-rule="nonzero"></path>
    </g>
</svg>

<svg width="40" height="40" viewBox="0 0 40 40" xmlns="http://www.w3.org/2000/svg">
    <path d="M19.93 6c-.22.02-.43.11-.6.26L16.9 8.45l-3.2-.69c-.5-.1-1 .19-1.16.67l-1 3.12-3.12 1a1 1 0 0 0-.67 1.16l.69 3.2-2.2 2.41a1 1 0 0 0 0 1.35l2.2 2.42-.69 3.2a1 1 0 0 0 .67 1.16l3.12 1 1 3.1a1 1 0 0 0 1.16.69l3.2-.69 2.41 2.2a1 1 0 0 0 1.35 0l2.42-2.2 3.2.69a1 1 0 0 0 1.16-.68l1-3.1 3.1-1a1 1 0 0 0 .69-1.17l-.69-3.2 2.2-2.42a1 1 0 0 0 0-1.35l-2.2-2.41.69-3.2a1 1 0 0 0-.68-1.16l-3.1-1-1-3.12a1 1 0 0 0-1.17-.67l-3.2.69-2.42-2.2a1 1 0 0 0-.63-.25h-.1zM20 8.35l2.13 1.93a1 1 0 0 0 .89.23l2.8-.6.89 2.74c.1.3.33.55.64.65l2.74.88-.6 2.81a1 1 0 0 0 .23.88L31.65 20l-1.93 2.13a1 1 0 0 0-.23.89l.6 2.8-2.74.89c-.3.1-.55.33-.64.64l-.89 2.74-2.8-.6a1 1 0 0 0-.89.23L20 31.65l-2.13-1.93a1 1 0 0 0-.88-.23l-2.81.6-.88-2.74a1 1 0 0 0-.65-.64l-2.73-.89.6-2.8a1 1 0 0 0-.24-.89L8.35 20l1.93-2.13c.22-.24.3-.57.23-.88l-.59-2.81 2.73-.88c.3-.1.55-.34.65-.65l.88-2.74 2.8.6a1 1 0 0 0 .89-.23L20 8.35zm5.3 6.9l-6.33 6.1L15.41 18l-1.38 1.46L19 24.12l7.7-7.43-1.4-1.43z" fill="#D15C22"/>
</svg>
